logos/brunch.svg

<?xml version="1.0" encoding="UTF-8"?>
<svg width="256px" height="253px" viewBox="0 0 256 253" version="1.1" xmlns="http://www.w3.org/2000/svg" preserveAspectRatio="xMidYMid">
    <title>Brunch</title>
    <g>
        <path d="M76.2729388,188.767059 C75.9669822,184.679479 74.8288237,180.204354 70.3129044,176.084138 C70.3129044,176.075979 70.3047455,176.075979 70.2925073,176.06782 C70.1170921,175.904644 69.9212799,175.733308 69.7336265,175.570131 C69.7050706,175.553813 69.6887529,175.529337 69.6683558,175.517099 C63.4186825,169.809988 58.4254709,158.840425 58.4254709,147.193677 C58.4254709,130.95758 65.6174905,84.8111674 67.17175,84.8111674 C68.4037352,84.8111674 68.4282117,107.06849 67.6123275,127.991841 C67.0452879,142.52274 69.1951429,148.246168 72.662651,148.246168 C77.2805558,148.246168 78.0189311,133.621442 78.4962233,117.181375 C78.8878478,103.645855 80.0708799,84.9131529 81.0173057,84.8111674 L81.0213851,84.8111674 C82.4981356,84.8111674 83.7178825,103.425566 84.1135864,116.993722 C84.6031169,133.841731 85.7698314,147.830067 89.6289639,147.830067 C93.6798292,147.830067 94.9118144,141.360105 94.6262549,126.996462 C94.2754247,109.46311 94.2713453,84.8111674 95.5033305,84.8111674 C97.05759,84.8111674 102.332282,101.010549 103.605061,147.193677 C103.927335,158.832266 98.6118494,169.805909 92.3580967,175.517099 C92.3376996,175.533416 92.3213819,175.557893 92.292826,175.570131 C92.1051726,175.733308 91.9093604,175.904644 91.7339452,176.06782 C91.7257864,176.075979 91.7135481,176.075979 91.7135481,176.084138 C87.1935494,180.204354 86.0594703,184.679479 85.7494343,188.767059 C85.2599038,195.294133 85.039615,203.656946 85.0640915,213.068171 L120.661121,248.665201 C121.158811,233.151162 121.109858,218.518278 120.424515,207.471205 C120.167511,203.342831 119.535201,198.549511 118.813143,194.727093 C118.588775,193.507346 117.805526,192.381426 117.805526,191.414603 C117.805526,178.025943 117.805526,65.2217867 117.805526,56.9364821 C117.805526,45.4651496 128.546642,40.0435988 138.427001,65.2217867 C148.307359,90.3999745 145.54967,179.943271 145.54967,186.311247 C145.54967,187.661536 144.378876,189.256589 142.457469,190.827166 C141.690538,191.324856 141.021513,191.826625 140.376964,192.340632 C134.457724,197.089078 133.613284,202.563661 133.303248,207.471205 C132.564872,219.35048 131.969277,235.374446 131.814259,252.185741 L180.873379,203.126621 C180.804028,197.362399 180.644931,192.177455 180.375689,187.857348 C180.273704,186.201103 179.861682,184.516302 179.547567,182.741754 C178.658253,177.715907 172.437135,173.599771 168.839086,169.985403 C161.846958,162.964719 157.351436,151.162954 157.351436,137.855882 C157.351436,116.247187 169.328617,88.8946681 184.10428,88.8946681 C198.879944,88.8946681 210.861204,116.243108 210.861204,137.855882 C210.861204,151.162954 206.365682,162.968799 199.373554,169.985403 C195.771425,173.599771 189.550308,177.715907 188.660994,182.741754 C188.346878,184.520381 187.934857,186.201103 187.832871,187.857348 C187.669694,190.455939 187.551391,193.384964 187.461644,196.542436 L256,128 L128,0 L3.26849658e-13,128 L76.9093285,204.909328 C76.8236606,198.818753 76.6156102,193.33601 76.2729388,188.767059 Z" fill="#3F894A"></path>
    </g>
</svg>

<svg preserveAspectRatio="xMidYMid" viewBox="0 0 256 253" xmlns="http://www.w3.org/2000/svg">
  <path fill="#3F894A" d="M76.273 188.767c-.306-4.088-1.444-8.563-5.96-12.683 0-.008-.008-.008-.02-.016a22.939 22.939 0 0 0-.56-.498c-.028-.016-.044-.04-.065-.053-6.25-5.707-11.243-16.677-11.243-28.323 0-16.236 7.192-62.383 8.747-62.383 1.232 0 1.256 22.257.44 43.18-.567 14.532 1.583 20.255 5.05 20.255 4.619 0 5.357-14.625 5.834-31.065.392-13.535 1.575-32.268 2.521-32.37h.004c1.477 0 2.697 18.615 3.093 32.183.49 16.848 1.656 30.836 5.515 30.836 4.05 0 5.283-6.47 4.997-20.834-.35-17.533-.355-42.185.877-42.185 1.555 0 6.83 16.2 8.102 62.383.322 11.638-4.993 22.612-11.247 28.323-.02.016-.037.04-.065.053-.188.163-.384.335-.56.498-.007.008-.02.008-.02.016-4.52 4.12-5.654 8.595-5.964 12.683-.49 6.527-.71 14.89-.685 24.301l35.597 35.597c.498-15.514.449-30.147-.236-41.194-.257-4.128-.89-8.921-1.612-12.744-.224-1.22-1.007-2.346-1.007-3.312V56.936c0-11.47 10.74-16.892 20.621 8.286 9.88 25.178 7.123 114.721 7.123 121.09 0 1.35-1.171 2.945-3.093 4.515-.766.498-1.435 1-2.08 1.514-5.92 4.748-6.764 10.223-7.074 15.13-.738 11.88-1.334 27.903-1.489 44.715l49.06-49.06c-.07-5.764-.23-10.949-.498-15.269-.102-1.656-.514-3.34-.828-5.115-.89-5.026-7.11-9.142-10.709-12.757-6.992-7.02-11.488-18.822-11.488-32.13 0-21.608 11.978-48.96 26.753-48.96 14.776 0 26.757 27.348 26.757 48.96 0 13.308-4.495 25.114-11.487 32.13-3.603 3.615-9.824 7.73-10.713 12.757-.314 1.778-.726 3.46-.828 5.115a258.497 258.497 0 0 0-.371 8.685L256 128 128 0 0 128l76.91 76.91c-.086-6.091-.294-11.574-.637-16.143Z"/>
</svg>
